src/img/header/whatsapp.svg

<svg width="16" height="16" viewBox="0 0 16 16" fill="none" xmlns="http://www.w3.org/2000/svg">
<path d="M14 0H2C0.895431 0 0 0.895431 0 2V14C0 15.1046 0.895431 16 2 16H14C15.1046 16 16 15.1046 16 14V2C16 0.895431 15.1046 0 14 0Z" fill="#1BD741"/>
<path d="M2.4043 13.6012L3.18802 10.8176C2.68404 9.96143 2.41869 8.98727 2.41869 7.98654C2.41869 4.90525 4.9255 2.39844 8.0068 2.39844C11.0881 2.39844 13.5949 4.90525 13.5949 7.98654C13.5949 11.0678 11.0881 13.5746 8.0068 13.5746C7.04669 13.5746 6.10655 13.3289 5.27487 12.8622L2.4043 13.6012ZM5.42162 11.8456L5.59267 11.95C6.3178 12.3927 7.15261 12.6267 8.0068 12.6267C10.5654 12.6267 12.6469 10.5451 12.6469 7.98654C12.6469 5.42794 10.5654 3.34637 8.0068 3.34637C5.4482 3.34637 3.36662 5.42794 3.36662 7.98654C3.36662 8.87805 3.62 9.74379 4.0993 10.4902L4.21449 10.6695L3.76317 12.2725L5.42162 11.8456Z" fill="white"/>
<path d="M6.43715 5.38566L6.07455 5.36589C5.96066 5.35968 5.84895 5.39773 5.76286 5.47252C5.58707 5.62517 5.306 5.92029 5.21966 6.30487C5.09092 6.87829 5.28988 7.58046 5.80482 8.28263C6.31975 8.9848 7.27937 10.1083 8.97627 10.5881C9.52308 10.7427 9.95323 10.6385 10.2851 10.4262C10.548 10.258 10.7292 9.98816 10.7945 9.68307L10.8524 9.41266C10.8708 9.32672 10.8271 9.23951 10.7473 9.20272L9.52182 8.63786C9.44226 8.6012 9.34793 8.62437 9.29442 8.69371L8.81333 9.31738C8.77699 9.3645 8.71478 9.38317 8.65861 9.36344C8.32915 9.24765 7.22555 8.78545 6.62 7.61901C6.59374 7.56842 6.60027 7.50701 6.63752 7.46387L7.0973 6.93197C7.14427 6.87766 7.15614 6.8013 7.12791 6.7353L6.59967 5.49944C6.57155 5.43365 6.50853 5.38955 6.43715 5.38566Z" fill="white"/>
</svg>

<svg width="16" height="16" fill="none" xmlns="http://www.w3.org/2000/svg"><path d="M14 0H2a2 2 0 00-2 2v12a2 2 0 002 2h12a2 2 0 002-2V2a2 2 0 00-2-2z" fill="#1BD741"/><path d="M2.404 13.601l.784-2.783a5.57 5.57 0 01-.77-2.831 5.594 5.594 0 015.589-5.589 5.594 5.594 0 015.588 5.589 5.594 5.594 0 01-5.588 5.588c-.96 0-1.9-.246-2.732-.713l-2.87.74zm3.018-1.755l.17.104a4.63 4.63 0 002.415.677 4.645 4.645 0 004.64-4.64 4.645 4.645 0 00-4.64-4.64 4.645 4.645 0 00-4.64 4.64c0 .891.253 1.757.732 2.503l.115.18-.45 1.603 1.658-.427z" fill="#fff"/><path d="M6.437 5.386l-.362-.02a.438.438 0 00-.312.107c-.176.152-.457.447-.543.832-.13.573.07 1.275.585 1.978.515.702 1.474 1.825 3.171 2.305.547.155.977.05 1.31-.162a1.17 1.17 0 00.508-.743l.058-.27a.188.188 0 00-.105-.21l-1.225-.565a.188.188 0 00-.228.056l-.48.623a.138.138 0 01-.155.046c-.33-.115-1.433-.578-2.039-1.744a.14.14 0 01.018-.155l.46-.532a.188.188 0 00.03-.197L6.6 5.5a.188.188 0 00-.163-.113z" fill="#fff"/></svg>
